!!!COM: Fanny (Mendelssohn) Hensel
!!!CNT: Deutsch
!!!TXO: Deutsch
!!!OTL: "Kein Blick der Hoffnung"
!!!LYR: Ho2lty, Ludwig
!!!OPR: 
!!!OPS: Op. 
!!!ONM: No. 
!!!ENC: Emily Thomas
!!!YOR: Hensel: Ausgewa2hlte Lieder fu2r Singstimme und Klavier
!!!YOR: Breitkopf & Hartel, 1994
!!!ODT: 1827/
!!NB: Vocal melody and text encoded.
**kern	**silbe
=1-	=1
*clefG2	*
*k[b-e-a-d-g-c-]	*
*M6/8	*
*MM[Allegro agitato]	*
4r	.
8r	.
4r	.
{8b-	{Kein
=2	=2
[4.cc-	Blick
4cc-]	|
8dn	der
=3	=3
4.e-	Hoff-
4.e-	-nung
=4	=4
8e-	hei-
8f	-tert
8gn	mit
4a-	tru2-
8b-	-bem
=5	=5
[4.cc-	Licht
8cc-]}	|}
8r	.
{8b-	{der
=6	=6
[4.ee-	See-
8ee-]	|
8b-	|
8g-	-le
=7	=7
4.f	Dun-
4e-}	-kel!}
8r	.
=8	=8
{8b-	{Nim-
8an	-mer,
8b-	o
4dd-	nim-
8cc-	-mer
=9	=9
4.b-	wird
4.ccn	dein
=10	=10
4dd-	Au-
8a-	-ge,
4ff	Lau-
8ee-	-ra,
=11	=11
4.dd-	mei-
4.a-}	-nem}
=12	=12
{4f-	{Au-
8a-	-ge
8cc-	wie-
8dd-	-der
8ee-	be-
=13	=13
4.ff-	-geg-
4gn	-nen
8gn	und
=14	=14
[4.cc-	Lie-
8cc-]	|
8gn	|
8a-	-be
=15	=15
2.a-	spre-
=16	=16
4.g-	|
4.f-	|
=17	=17
4.e-}	-chen!}
4r	.
8r	.
==	==
*-	*-
